X:137
T:Mistake, The
M:6/8
L:1/8
B:Thompson's Compleat Collection of 200 Favourite Country Dances, vol. 3 (London, 1773)
Z:Transcribed and edited by Flynn Titford-Mock, 2007
Z:abc's:AK/Fiddler's Companion
K:D
d2A d2A | def ecA | B2d A2F | GEE E3 | d2A d2A | def ecA | B2d A2G | FDD D3 :|
|: FDD AFF | dAA fdd | FDD AFF | GEE E3 | FDD AFF | dAA fdd | Bcd A2G | FDD D3 :|
|: fed ecA | fed ecA | Bcd A2F | GEE E3 | fed ecA | fed ecA | B2d A2G | FDD D3 :|

